X:1
T:Sponsa Christi, 87.87 D
T:Sponsa Christi, 87.87 D
T:Herbert Stanley Oakeley, 1889
T:Public Domain Courtesy of the Cyber Hymnal™
C:Herbert Stanley Oakeley, 1889
Z:Public Domain
Z:Courtesy of the Cyber Hymnal™
%%score ( 1 2 ) ( 3 4 )
L:1/8
Q:1/4=110
M:4/4
K:G
V:1 treble 
V:2 treble 
V:3 bass 
V:4 bass 
V:1
 [B,D]2 [CE]2 | G3 [EG] [EA]2 [Fd]2 x | [Ec]2 [DB]2 d3 z c | [GB]2 [FA]2 G3 [B,F] x | %4
 [B,E]4 [CE]3 [B,=F] x2 | [CG]2 [=FA]2 [FB]2 [Ec]2 | [Dd]2 [=FG]2 [Ee]2 [^Fd]2 | %7
 G2 [Ec]2 [EA]2 [DA]2 | [DG]4 G2 G2 | G3 [_EG] [D=F]2 [CE]2 | [_E_A]2 [EG]2 [EG]2 [E=A]2 | %11
 [_Ec]2 [D_B]2 B2 z x3 | d4 [B,D]2 [CE]2 | G3 [EG] [EA]2 [Fd]2 x | [Ec]2 [DB]2 [GB]2 [Gc]2 | %15
 d2 e2 [Gd]3 [DF] | [DG]4 |] %17
V:2
 x4 | (D2 B,) x6 | x4 D2 F2 x | x4 (E2 ^D) x2 | x10 | x8 | x8 | G2 x6 | x4 G2 G2 | G3 x5 | x8 | %11
 x4 G3 (c2 G) | (FEDC) x4 | (D2 B,) x6 | x8 | (GF) (EF) x4 | x4 |] %17
V:3
 [G,,G,]2 [C,G,]2 | G,3 z B, (CB,) [D,A,]2 | ([E,G,][F,A,]) [G,B,]2 [F,A,]2 [D,D]2 x | %3
 [G,D]2 [A,C]2 B,3 z A, | [E,G,]4 (G,2 z) x3 | (G,C) C2 [D,D]2 [C,G,]2 | %6
 [B,,G,]2 [B,,D]2 (CB,) [D,A,]2 | [E,G,]2 [C,G,]2 [D,G,]2 (F,C) | [G,B,]4 G,2 G,2 | %9
 [_E,_B,]3 [E,B,] [_B,,_A,]2 [C,G,]2 | [_A,,C]2 [_E,_B,]2 [C,C]2 [=F,C]2 | %11
 [F,A,]2 [G,_B,]2 (G,B,)[=E,G,] x3 | A,G,F,A, [G,,G,]2 [C,G,]2 | G,3 z B, (CB,) [D,A,]2 | %14
 ([E,G,][F,A,]) [G,B,]2 [E,B,]2 [C,E]2 | [B,,D]2 (G,A,) [D,B,]3 [D,A,] | [G,,B,]4 |] %17
V:4
 x4 | (B,,2 E,2 C,2) x3 | x9 | x4 B,2 B,,2 x | x4 C,3 (G,2 D,) | E,2 (=F,E,) x4 | x4 C,2 x2 | %7
 x6 D,2 | x4 G,2 (G,_F,) | x8 | x8 | x4 _E,3 A, x2 | D,4 x4 | B,,2 (E,2 C,2) x3 | x8 | x2 C,2 x4 | %16
 x4 |] %17

